svgs/among_us.svg

<svg width="192" height="192" viewBox="0 0 192 192" fill="none" xmlns="http://www.w3.org/2000/svg">
<path fill-rule="evenodd" clip-rule="evenodd" d="M55.0873 40H83C96.8071 40 108 51.1929 108 65C108 78.8071 96.8071 90 83 90H52C51.6651 90 51.3317 89.9934 51 89.9804V158C51 161.314 53.6863 164 57 164H66C69.3137 164 72 161.314 72 158V140C72 136.686 74.6863 134 78 134H102C105.314 134 108 136.686 108 140V158C108 161.314 110.686 164 114 164H123C126.314 164 129 161.314 129 158V54C129 39.6406 117.359 28 103 28H77C67.7952 28 59.7076 32.7834 55.0873 40ZM39 86.3584C31.8041 81.9691 27 74.0456 27 65C27 55.2544 32.5763 46.8113 40.7124 42.6873C45.5275 27.2252 59.9529 16 77 16H103C119.043 16 132.764 25.9415 138.338 40H147C156.941 40 165 48.0589 165 58V123C165 132.941 156.941 141 147 141H141V158C141 167.941 132.941 176 123 176H114C104.059 176 96 167.941 96 158V146H84V158C84 167.941 75.9411 176 66 176H57C47.0589 176 39 167.941 39 158V86.3584ZM141 129H147C150.314 129 153 126.314 153 123V58C153 54.6863 150.314 52 147 52H140.948C140.983 52.6623 141 53.3291 141 54V129ZM52 52C44.8203 52 39 57.8203 39 65C39 72.1797 44.8203 78 52 78H83C90.1797 78 96 72.1797 96 65C96 57.8203 90.1797 52 83 52H52Z" fill="black"/>
</svg>

<svg width="192" height="192" fill="none" xmlns="http://www.w3.org/2000/svg"><path fill-rule="evenodd" clip-rule="evenodd" d="M55.087 40H83c13.807 0 25 11.193 25 25S96.807 90 83 90H52c-.335 0-.668-.007-1-.02V158a6 6 0 0 0 6 6h9a6 6 0 0 0 6-6v-18a6 6 0 0 1 6-6h24a6 6 0 0 1 6 6v18a6 6 0 0 0 6 6h9a6 6 0 0 0 6-6V54c0-14.36-11.641-26-26-26H77c-9.205 0-17.292 4.783-21.913 12zM39 86.358C31.804 81.97 27 74.046 27 65c0-9.746 5.576-18.189 13.712-22.313C45.528 27.225 59.952 16 77 16h26c16.043 0 29.764 9.942 35.338 24H147c9.941 0 18 8.059 18 18v65c0 9.941-8.059 18-18 18h-6v17c0 9.941-8.059 18-18 18h-9c-9.941 0-18-8.059-18-18v-12H84v12c0 9.941-8.059 18-18 18h-9c-9.941 0-18-8.059-18-18V86.358zM141 129h6a6 6 0 0 0 6-6V58a6 6 0 0 0-6-6h-6.052c.035.662.052 1.33.052 2v75zM52 52c-7.18 0-13 5.82-13 13s5.82 13 13 13h31c7.18 0 13-5.82 13-13s-5.82-13-13-13H52z" fill="#000"/></svg>
